build/svg/cmd/sc_capturepoint.svg

<?xml version="1.0" encoding="UTF-8" standalone="no"?>
<svg
   xmlns:dc="http://purl.org/dc/elements/1.1/"
   xmlns:cc="http://creativecommons.org/ns#"
   xmlns:rdf="http://www.w3.org/1999/02/22-rdf-syntax-ns#"
   xmlns:svg="http://www.w3.org/2000/svg"
   xmlns="http://www.w3.org/2000/svg"
   xmlns:sodipodi="http://sodipodi.sourceforge.net/DTD/sodipodi-0.dtd"
   xmlns:inkscape="http://www.inkscape.org/namespaces/inkscape"
   viewBox="0 0 16 16"
   version="1.1"
   id="svg6"
   sodipodi:docname="sc_capturepoint.svg"
   inkscape:version="0.92.5 (2060ec1f9f, 2020-04-08)"
   inkscape:export-filename="/home/jupiter007/Libreoffice yaru theme fullcolor/build/cmd/sc_capturepoint.png"
   inkscape:export-xdpi="96"
   inkscape:export-ydpi="96">
  <metadata
     id="metadata12">
    <rdf:RDF>
      <cc:Work
         rdf:about="">
        <dc:format>image/svg+xml</dc:format>
        <dc:type
           rdf:resource="http://purl.org/dc/dcmitype/StillImage" />
      </cc:Work>
    </rdf:RDF>
  </metadata>
  <defs
     id="defs10" />
  <sodipodi:namedview
     pagecolor="#ffffff"
     bordercolor="#666666"
     borderopacity="1"
     objecttolerance="10"
     gridtolerance="10"
     guidetolerance="10"
     inkscape:pageopacity="0"
     inkscape:pageshadow="2"
     inkscape:window-width="1920"
     inkscape:window-height="1011"
     id="namedview8"
     showgrid="true"
     inkscape:zoom="20.85965"
     inkscape:cx="5.4148984"
     inkscape:cy="8"
     inkscape:window-x="0"
     inkscape:window-y="32"
     inkscape:window-maximized="1"
     inkscape:current-layer="svg6">
    <inkscape:grid
       type="xygrid"
       id="grid834" />
  </sodipodi:namedview>
  <path
     sodipodi:nodetypes="cccscsccccccccscscccccc"
     inkscape:connector-curvature="0"
     id="path4237-1"
     d="M 4.994616,1 C 3.736416,1.0145 2.815725,0.9694 2.062975,1.384766 1.686605,1.592426 1.389744,1.944152 1.225084,2.382812 1.060414,2.821482 1.000475,3.3424 1.000475,4 V 5.488281 12 c 0,0.657609 0.0599,1.178577 0.224609,1.617189 0.16468,0.43861 0.461531,0.788523 0.837891,0.996092 0.75272,0.415131 1.673541,0.37165 2.931641,0.386719 h 0.002 6.004859 0.0039 c 1.25819,-0.0145 2.178891,0.0306 2.931641,-0.384766 0.37637,-0.20766 0.673221,-0.559386 0.837891,-0.998045 C 14.939446,13.178518 14.999525,12.657609 14.999525,12 V 5.466797 4 c 0,-0.6576 -0.0599,-1.178577 -0.224609,-1.617188 C 14.610236,1.944213 14.313385,1.594279 13.937025,1.386719 13.184255,0.971589 12.263424,1.01508 11.005334,1 h -0.002 -6.004859 z"
     style="font-style:normal;font-variant:normal;font-weight:normal;font-stretch:normal;font-size:15px;line-height:125%;font-family:Ubuntu;-inkscape-font-specification:Ubuntu;text-align:center;letter-spacing:0px;word-spacing:0px;writing-mode:lr-tb;text-anchor:middle;display:inline;opacity:0.6;fill:#000000;fill-opacity:1;stroke:none;stroke-width:0.99980211" />
  <path
     inkscape:connector-curvature="0"
     id="path1993"
     d="M 5.982844,2.027185 C 4.426263,2.037985 4.873854,2.015435 3.323903,2.065955 2.862674,2.108625 2.307715,2.272374 2.168563,2.775922 1.949569,3.411268 2.060149,4.109709 2.022767,4.757846 c -0.0078,2.297084 -0.02297,5.595846 0.02152,7.885197 0.0391,0.461929 0.202551,1.012665 0.698756,1.163665 0.632456,0.225083 1.284144,0.12274 1.935974,0.154299 1.424235,0.0068 0.849563,0.01102 2.27542,0.01131 1.704531,3.49e-4 3.408388,-0.005 5.10719,-0.01851 0.511911,-0.01201 1.183699,0.01993 1.584745,-0.405192 0.421097,-0.539783 0.287073,-1.268021 0.322745,-1.903787 0.01187,-2.444322 0.02769,-5.910512 -0.0219,-8.356211 C 13.897937,2.886577 13.777225,2.425665 13.372078,2.244142 12.703909,1.950045 11.945873,2.076123 11.246157,2.03857 9.49175,2.02677 7.737283,2.02608 5.982844,2.02718 Z"
     style="opacity:1;vector-effect:none;fill:#ffffff;fill-opacity:1;stroke:none;stroke-width:1;stroke-linecap:round;stroke-linejoin:bevel;stroke-miterlimit:4;stroke-dasharray:none;stroke-dashoffset:0;stroke-opacity:1"
     sodipodi:nodetypes="cccccccscccccccc" />
  <path
     sodipodi:nodetypes="cccccccccccccccc"
     style="opacity:0.6;fill:#000000;stroke:#000000;stroke-width:2;stroke-linejoin:round;stroke-miterlimit:4;stroke-dasharray:none"
     inkscape:connector-curvature="0"
     id="path847"
     d="M 12,8 C 11,8 10,8 10,9.5 V 11 H 9 v 4 h 6 V 11 H 14 V 9.5 C 14,8 13,8 12,8 Z m 0,1 c 1,0 1,0.5 1,1 v 1 h -2 v -1 c 0,-0.5 0,-1 1,-1 z" />
  <path
     d="M 12,8 C 11,8 10,8 10,9.5 V 11 H 9 v 4 h 6 V 11 H 14 V 9.5 C 14,8 13,8 12,8 Z m 0,1 c 1,0 1,0.5 1,1 v 1 h -2 v -1 c 0,-0.5 0,-1 1,-1 z"
     id="path2"
     inkscape:connector-curvature="0"
     style="fill:#ffffff"
     sodipodi:nodetypes="cccccccccccccccc" />
  <rect
     style="opacity:1;fill:#232629;fill-opacity:1;fill-rule:evenodd;stroke:none;stroke-width:2;stroke-linecap:butt;stroke-linejoin:round;stroke-miterlimit:4;stroke-dasharray:none;stroke-opacity:1"
     id="rect836"
     width="2"
     height="2"
     x="4"
     y="4" />
</svg>

<svg xmlns="http://www.w3.org/2000/svg" viewBox="0 0 16 16"><path d="M4.995 1c-1.259.014-2.18-.03-2.932.385a1.88 1.88 0 00-.838.998C1.06 2.82 1 3.343 1 4v8c0 .658.06 1.179.225 1.617.165.439.462.789.838.996.753.415 1.674.372 2.932.387H11.005c1.259-.015 2.18.03 2.932-.385a1.88 1.88 0 00.838-.998c.164-.438.225-.96.225-1.617V4c0-.658-.06-1.179-.225-1.617a1.875 1.875 0 00-.838-.996c-.753-.415-1.674-.372-2.932-.387H4.998z" style="line-height:125%;-inkscape-font-specification:Ubuntu;text-align:center" font-weight="400" font-size="15" font-family="Ubuntu" letter-spacing="0" word-spacing="0" text-anchor="middle" opacity=".6"/><path d="M5.983 2.027c-1.557.011-1.11-.012-2.66.039-.46.043-1.015.206-1.154.71-.22.635-.109 1.334-.146 1.982-.008 2.297-.023 5.596.021 7.885.04.462.203 1.013.699 1.164.632.225 1.284.122 1.936.154 1.424.007.85.011 2.275.011 1.705 0 3.409-.005 5.108-.018.512-.012 1.183.02 1.584-.405.421-.54.287-1.268.323-1.904.012-2.444.028-5.91-.022-8.356-.05-.402-.17-.863-.575-1.045-.668-.294-1.426-.168-2.126-.205a715.83 715.83 0 00-5.263-.012z" fill="#fff"/><path d="M12 8c-1 0-2 0-2 1.5V11H9v4h6v-4h-1V9.5C14 8 13 8 12 8zm0 1c1 0 1 .5 1 1v1h-2v-1c0-.5 0-1 1-1z" opacity=".6" stroke="#000" stroke-width="2" stroke-linejoin="round"/><path d="M12 8c-1 0-2 0-2 1.5V11H9v4h6v-4h-1V9.5C14 8 13 8 12 8zm0 1c1 0 1 .5 1 1v1h-2v-1c0-.5 0-1 1-1z" fill="#fff"/><path fill="#232629" fill-rule="evenodd" d="M4 4h2v2H4z"/></svg>
